X:2524
T:The Howlet And The Weazle
C:anon.
O:England
Z:C.G.P
F:http://abc.musicaviva.com/tunes/england/the-howlet-and-the-weazle/the-howlet-and-the-weazle.abc
%Posted at abcusers Jan 2nd 2001 by Johnny Adams.
M:6/8
L:1/8
K:G
D|GAG B2c|ded d2g|f2aA2c|BAB G2D|GAG B2c|
ded d2g|f2aA2^c|d3 d2::B/c/|ded d2b|cdc c2a|BAG dcB|
cDD D3|GAG B2c|ded d2g|dBG cAF|G3G2:|
W:
W:
W:  From Musica Viva - http://www.musicaviva.com
W:  the Internet center for free sheet music downloads.
